X: 13209
T: Fisher Lads
R: hornpipe
M: 4/4
K: Amajor
cd|e^dec agaf|e^dec agaf|e^dfe e=ddc|cB/c/ ed Bcd^d|
e^dec agaf|e^dec agaf|ecfd cABG|A/B/c/d/ e>c A2:|
|:ED|CEAc Eace|Acea ceac’|e^dfe e=ddc|cB/c/ d>c B2ED|
CEAc Eace|Acea ceac’|ecfd cABG|A/B/c/d/ e>c A2:|

